outputs/icons/hardware/desktop_sharp.svg

<svg xmlns="http://www.w3.org/2000/svg" width="1200" height="1200" fill="none"><g clip-path="url(#a)"><path fill="#000" d="M1150 100H50v800h450v100H400v100h400v-100H700V900h450zm-100 700H150V200h900z"/></g><defs><clipPath id="a"><path fill="#fff" d="M0 0h1200v1200H0z"/></clipPath></defs></svg>

<svg width="1200" height="1200" viewBox="0 0 1200 1200" fill="none" xmlns="http://www.w3.org/2000/svg"><g clip-path="url(#clip0_133_37)"><path d="M1150 100H50V900H500V1000H400V1100H800V1000H700V900H1150V100ZM1050 800H150V200H1050V800Z" fill="black"/></g><defs><clipPath id="clip0_133_37"><path width="24" fill="white" d="M0 0H1200V1200H0V0z"/></clipPath></defs></svg>
